src/assets/healthPage/ClearBraces/CardBrown.svg

<svg height="56" viewBox="0 0 56 56" width="56" xmlns="http://www.w3.org/2000/svg"><path d="m0 2.567a2.567 2.567 0 0 1 2.567-2.567h43.866a2.567 2.567 0 0 1 2.567 2.567v25.2a2.567 2.567 0 0 1 -2.567 2.567h-6.766l-2.08-18.717a2.567 2.567 0 0 0 -2.551-2.283h-35.036z" fill="#a7958a" transform="translate(7 9.333)"/><path d="m2.747 30.322a2.751 2.751 0 0 1 -2.747-2.739v-24.847a2.751 2.751 0 0 1 2.747-2.736h43.505a2.748 2.748 0 0 1 2.748 2.736v24.847a2.749 2.749 0 0 1 -2.747 2.738zm35.891-2.591a5.087 5.087 0 1 0 -2.207-9.671 5.1 5.1 0 0 0 -2.194-.5h-.015a5.085 5.085 0 1 0 2.209 9.67 5.066 5.066 0 0 0 2.207.501zm-20.271-.687a.687.687 0 0 0 .687.685h2.768a.685.685 0 1 0 0-1.369h-2.769a.687.687 0 0 0 -.686.684zm-15.259 0a.687.687 0 0 0 .687.685h12.461a.685.685 0 1 0 0-1.369h-12.461a.687.687 0 0 0 -.687.684zm5.979-3.961a.687.687 0 0 0 .687.685h12.047a.685.685 0 1 0 0-1.369h-12.048a.687.687 0 0 0 -.686.684zm-5.979 0a.687.687 0 0 0 .687.685h3.181a.685.685 0 1 0 0-1.369h-3.181a.687.687 0 0 0 -.687.684zm0-18.7v4.317a.686.686 0 0 0 .687.682h15.743a.686.686 0 0 0 .687-.682v-4.322a.686.686 0 0 0 -.687-.683h-15.743a.686.686 0 0 0 -.687.683zm34.692 21.882a5.063 5.063 0 0 0 0-7.243 3.718 3.718 0 1 1 0 7.243zm-6.945-2.012a3.721 3.721 0 0 1 4.2-5.231 5.063 5.063 0 0 0 0 7.243 3.743 3.743 0 0 1 -4.2-2.012zm4.051-1.611a3.7 3.7 0 0 1 1.522-2.993 3.7 3.7 0 0 1 0 5.987 3.709 3.709 0 0 1 -1.52-2.994zm-30.425-14.624v-2.955h14.37v2.955z" fill="#55311b" transform="translate(0 16.339)"/></svg>

<svg id="Icons_credit_card" data-name="Icons/credit_card" xmlns="http://www.w3.org/2000/svg" width="56" height="56" viewBox="0 0 56 56">
  <path id="Card_light" d="M0,2.567A2.567,2.567,0,0,1,2.567,0H46.433A2.567,2.567,0,0,1,49,2.567v25.2a2.567,2.567,0,0,1-2.567,2.567H39.667l-2.08-18.717a2.567,2.567,0,0,0-2.551-2.283H0Z" transform="translate(7 9.333)" fill="#a7958a"/>
  <path id="Card_gri" d="M2.747,30.322A2.751,2.751,0,0,1,0,27.583V2.736A2.751,2.751,0,0,1,2.747,0H46.252A2.748,2.748,0,0,1,49,2.736V27.583a2.749,2.749,0,0,1-2.747,2.738Zm35.891-2.591a5.087,5.087,0,1,0-2.207-9.671,5.1,5.1,0,0,0-2.194-.5h-.015a5.085,5.085,0,1,0,2.209,9.67A5.066,5.066,0,0,0,38.638,27.731Zm-20.271-.687a.687.687,0,0,0,.687.685h2.768a.685.685,0,1,0,0-1.369H19.053A.687.687,0,0,0,18.367,27.044Zm-15.259,0a.687.687,0,0,0,.687.685H16.256a.685.685,0,1,0,0-1.369H3.795A.687.687,0,0,0,3.108,27.044Zm5.979-3.961a.687.687,0,0,0,.687.685H21.821a.685.685,0,1,0,0-1.369H9.773A.687.687,0,0,0,9.087,23.083Zm-5.979,0a.687.687,0,0,0,.687.685H6.976a.685.685,0,1,0,0-1.369H3.795A.687.687,0,0,0,3.108,23.083Zm0-18.7V8.7a.686.686,0,0,0,.687.682H19.538a.686.686,0,0,0,.687-.682V4.378a.686.686,0,0,0-.687-.683H3.795A.686.686,0,0,0,3.108,4.378ZM37.8,26.265a5.063,5.063,0,0,0,0-7.243,3.718,3.718,0,1,1,0,7.243Zm-6.945-2.012a3.721,3.721,0,0,1,4.2-5.231,5.063,5.063,0,0,0,0,7.243,3.743,3.743,0,0,1-4.2-2.012Zm4.051-1.611a3.7,3.7,0,0,1,1.522-2.993,3.7,3.7,0,0,1,0,5.987A3.709,3.709,0,0,1,34.908,22.642ZM4.481,8.018V5.063h14.37V8.018Z" transform="translate(0 16.339)" fill="#55311b"/>
</svg>
